X:175
T:Going Up Caney
C:Traditional
N:Transcribed and Transcribed by Mike Stangeland
R:bluegrass
L:1/8
Q:1/4=240
M:4/4
K:G
z6 EF |: "G"G2 ed Bd ef | gf ed Bd zF | G2 e2 de dc | "D"BG AF "G"G2 EF | "G"G2 ed Bd ef | 
gf ed BG zF | G2 e2 de dc |1 B"D"G AF "G"G2 EF :|2 B"D"G AF "G"G2 Bd | "Em"[e2e2] [e2e2] [e2e2] [e2e2] | 
ef ed [e2B2] Bd | "G"ef ge dB GA | "D"BG AG "G"EG Bd | "Em"[e2e2] [e2e2] [e2e2] [e2e2] | 
ef ed [e2B2] Bd | "G"ef ge dB GA :| "D"BG AF "G"G4 | 


